components/Common/Svg/svgs/titledTwilio.svg

<svg width="164" height="108" viewBox="0 0 164 108" fill="none" xmlns="http://www.w3.org/2000/svg">
<g clip-path="url(#clip0_6986_44145)">
<path d="M23.9368 18.8333C23.9368 21.6667 21.6548 24 18.8838 24C16.1128 24 13.8308 21.6667 13.8308 18.8333C13.8308 16 16.1128 13.6667 18.8838 13.6667C21.6548 13.6667 23.9368 16 23.9368 18.8333ZM18.8838 26C16.1128 26 13.8308 28.3333 13.8308 31.1667C13.8308 34 16.1128 36.3333 18.8838 36.3333C21.6548 36.3333 23.9368 34 23.9368 31.1667C23.9368 28.3333 21.6548 26 18.8838 26ZM49.3648 25C49.3648 38.8333 38.4438 50 24.9148 50C11.3858 50 0.464844 38.8333 0.464844 25C0.464844 11.1667 11.3858 0 24.9148 0C38.4438 0 49.3648 11.1667 49.3648 25ZM42.8448 25C42.8448 14.8333 34.8578 6.66667 24.9148 6.66667C14.9718 6.66667 6.98484 14.8333 6.98484 25C6.98484 35.1667 14.9718 43.3333 24.9148 43.3333C34.8578 43.3333 42.8448 35.1667 42.8448 25ZM30.9458 26C28.1748 26 25.8928 28.3333 25.8928 31.1667C25.8928 34 28.1748 36.3333 30.9458 36.3333C33.7168 36.3333 35.9988 34 35.9988 31.1667C35.9988 28.3333 33.7168 26 30.9458 26ZM30.9458 13.6667C28.1748 13.6667 25.8928 16 25.8928 18.8333C25.8928 21.6667 28.1748 24 30.9458 24C33.7168 24 35.9988 21.6667 35.9988 18.8333C35.9988 16 33.7168 13.6667 30.9458 13.6667ZM115.054 9.83333C115.217 9.83333 115.38 10 115.543 10.1667V15.5C115.543 15.8333 115.217 16 115.054 16H106.415C106.089 16 105.926 15.6667 105.926 15.5V10.3333C105.926 10 106.252 9.83333 106.415 9.83333H115.054ZM114.891 17.3333H98.2648C98.1018 17.3333 97.7758 17.5 97.7758 17.8333L95.6568 26.1667L95.4938 26.6667L92.8858 17.8333C92.8858 17.6667 92.5598 17.3333 92.3968 17.3333H85.8768C85.7138 17.3333 85.3878 17.5 85.3878 17.8333L82.9428 26.1667L82.7798 26.6667L82.6168 26.1667L81.6388 22L80.6608 17.8333C80.6608 17.6667 80.3348 17.3333 80.1718 17.3333H67.1318V10.1667C67.1318 10 66.8058 9.66667 66.4798 9.83333L58.3298 12.5C58.0038 12.5 57.8408 12.6667 57.8408 13V17.5H55.7218C55.5588 17.5 55.2328 17.6667 55.2328 18V24.3333C55.2328 24.5 55.3958 24.8333 55.7218 24.8333H57.8408V32.6667C57.8408 38.1667 60.7748 40.6667 66.1538 40.6667C68.4358 40.6667 70.5548 40.1667 72.0218 39.3333V32.6667C72.0218 32.3333 71.6958 32.1667 71.5328 32.3333C70.7178 32.6667 69.9028 32.8333 69.2508 32.8333C67.7838 32.8333 66.9688 32.1667 66.9688 30.5V24.8333H71.6958C71.8588 24.8333 72.1848 24.6667 72.1848 24.3333V19L78.3788 40C78.3788 40.1667 78.7048 40.5 78.8678 40.5H85.7138C85.8768 40.5 86.2028 40.3333 86.2028 40L89.1368 30.6667L90.6038 35.5L91.9078 40C91.9078 40.1667 92.2338 40.5 92.3968 40.5H99.2428C99.4058 40.5 99.7318 40.3333 99.7318 40L105.926 19V40C105.926 40.1667 106.089 40.5 106.415 40.5H114.728C114.891 40.5 115.217 40.3333 115.217 40V17.8333C115.217 17.6667 115.054 17.3333 114.891 17.3333ZM125.812 9.83333H117.499C117.336 9.83333 117.01 10 117.01 10.3333V39.8333C117.01 40 117.173 40.3333 117.499 40.3333H125.812C125.975 40.3333 126.301 40.1667 126.301 39.8333V10.1667C126.301 10 126.138 9.83333 125.812 9.83333ZM136.896 9.83333H128.257C128.094 9.83333 127.768 10 127.768 10.3333V15.5C127.768 15.6667 127.931 16 128.257 16H136.896C137.059 16 137.385 15.8333 137.385 15.5V10.1667C137.385 10 137.222 9.83333 136.896 9.83333ZM136.733 17.3333H128.42C128.257 17.3333 127.931 17.5 127.931 17.8333V39.6667C127.931 39.8333 128.094 40.1667 128.42 40.1667H136.733C136.896 40.1667 137.222 40 137.222 39.6667V17.8333C137.222 17.6667 137.059 17.3333 136.733 17.3333ZM162.976 28.6667C162.976 35 157.76 40.5 150.425 40.5C143.253 40.5 138.037 35 138.037 28.6667C138.037 22.3333 143.253 16.8333 150.588 16.8333C157.76 16.8333 162.976 22.3333 162.976 28.6667ZM154.174 28.8333C154.174 26.5 152.544 24.6667 150.588 24.8333C148.469 24.8333 147.002 26.6667 147.002 28.8333C147.002 31 148.632 32.8333 150.588 32.8333C152.707 32.8333 154.174 31 154.174 28.8333Z" fill="#6A6A6A"/>
</g>
<path d="M66.5728 85.454V86.786H63.1528V98H61.5148V86.786H58.0768V85.454H66.5728ZM81.7291 88.136L78.6511 98H76.9591L74.5831 90.17L72.2071 98H70.5151L67.4191 88.136H69.0931L71.3611 96.416L73.8091 88.136H75.4831L77.8771 96.434L80.1091 88.136H81.7291ZM84.2008 86.534C83.8888 86.534 83.6248 86.426 83.4088 86.21C83.1928 85.994 83.0848 85.73 83.0848 85.418C83.0848 85.106 83.1928 84.842 83.4088 84.626C83.6248 84.41 83.8888 84.302 84.2008 84.302C84.5008 84.302 84.7528 84.41 84.9568 84.626C85.1728 84.842 85.2808 85.106 85.2808 85.418C85.2808 85.73 85.1728 85.994 84.9568 86.21C84.7528 86.426 84.5008 86.534 84.2008 86.534ZM84.9928 88.136V98H83.3548V88.136H84.9928ZM89.4224 84.68V98H87.7844V84.68H89.4224ZM93.0601 86.534C92.7481 86.534 92.4841 86.426 92.2681 86.21C92.0521 85.994 91.9441 85.73 91.9441 85.418C91.9441 85.106 92.0521 84.842 92.2681 84.626C92.4841 84.41 92.7481 84.302 93.0601 84.302C93.3601 84.302 93.6121 84.41 93.8161 84.626C94.0321 84.842 94.1401 85.106 94.1401 85.418C94.1401 85.73 94.0321 85.994 93.8161 86.21C93.6121 86.426 93.3601 86.534 93.0601 86.534ZM93.8521 88.136V98H92.2141V88.136H93.8521ZM100.946 98.162C100.022 98.162 99.1818 97.952 98.4258 97.532C97.6818 97.112 97.0938 96.518 96.6618 95.75C96.2418 94.97 96.0318 94.07 96.0318 93.05C96.0318 92.042 96.2478 91.154 96.6798 90.386C97.1238 89.606 97.7238 89.012 98.4798 88.604C99.2358 88.184 100.082 87.974 101.018 87.974C101.954 87.974 102.8 88.184 103.556 88.604C104.312 89.012 104.906 89.6 105.338 90.368C105.782 91.136 106.004 92.03 106.004 93.05C106.004 94.07 105.776 94.97 105.32 95.75C104.876 96.518 104.27 97.112 103.502 97.532C102.734 97.952 101.882 98.162 100.946 98.162ZM100.946 96.722C101.534 96.722 102.086 96.584 102.602 96.308C103.118 96.032 103.532 95.618 103.844 95.066C104.168 94.514 104.33 93.842 104.33 93.05C104.33 92.258 104.174 91.586 103.862 91.034C103.55 90.482 103.142 90.074 102.638 89.81C102.134 89.534 101.588 89.396 101 89.396C100.4 89.396 99.8478 89.534 99.3438 89.81C98.8518 90.074 98.4558 90.482 98.1558 91.034C97.8558 91.586 97.7058 92.258 97.7058 93.05C97.7058 93.854 97.8498 94.532 98.1378 95.084C98.4378 95.636 98.8338 96.05 99.3258 96.326C99.8178 96.59 100.358 96.722 100.946 96.722Z" fill="#A0A0A0"/>
<defs>
<clipPath id="clip0_6986_44145">
<rect width="163" height="50" fill="white" transform="translate(0.464844)"/>
</clipPath>
</defs>
</svg>

<svg width="164" height="108" viewBox="0 0 164 108" fill="none" xmlns="http://www.w3.org/2000/svg"><g clip-path="url(#a)"><path d="M23.937 18.833c0 2.834-2.282 5.167-5.053 5.167s-5.053-2.333-5.053-5.167c0-2.833 2.282-5.166 5.053-5.166 2.77 0 5.053 2.333 5.053 5.166ZM18.884 26c-2.771 0-5.053 2.333-5.053 5.167 0 2.833 2.282 5.166 5.053 5.166 2.77 0 5.053-2.333 5.053-5.166 0-2.834-2.282-5.167-5.053-5.167Zm30.48-1c0 13.833-10.92 25-24.45 25C11.387 50 .465 38.833.465 25S11.387 0 24.915 0c13.53 0 24.45 11.167 24.45 25Zm-6.52 0c0-10.167-7.986-18.333-17.93-18.333-9.942 0-17.93 8.166-17.93 18.333 0 10.167 7.988 18.333 17.93 18.333 9.944 0 17.93-8.166 17.93-18.333Zm-11.898 1c-2.771 0-5.053 2.333-5.053 5.167 0 2.833 2.282 5.166 5.053 5.166 2.77 0 5.053-2.333 5.053-5.166 0-2.834-2.282-5.167-5.053-5.167Zm0-12.333c-2.771 0-5.053 2.333-5.053 5.166 0 2.834 2.282 5.167 5.053 5.167 2.77 0 5.053-2.333 5.053-5.167 0-2.833-2.282-5.166-5.053-5.166Zm84.108-3.834c.163 0 .326.167.489.334V15.5c0 .333-.326.5-.489.5h-8.639c-.326 0-.489-.333-.489-.5v-5.167c0-.333.326-.5.489-.5h8.639Zm-.163 7.5H98.265c-.163 0-.49.167-.49.5l-2.118 8.334-.163.5-2.608-8.834c0-.166-.326-.5-.49-.5h-6.52c-.162 0-.488.167-.488.5l-2.445 8.334-.163.5-.163-.5L81.639 22l-.978-4.167c0-.166-.326-.5-.49-.5h-13.04v-7.166c0-.167-.325-.5-.651-.334L58.33 12.5c-.326 0-.49.167-.49.5v4.5h-2.118c-.163 0-.49.167-.49.5v6.333c0 .167.164.5.49.5h2.119v7.834c0 5.5 2.934 8 8.313 8 2.282 0 4.4-.5 5.868-1.334v-6.666c0-.334-.326-.5-.49-.334-.814.334-1.63.5-2.281.5-1.467 0-2.282-.666-2.282-2.333v-5.667h4.727c.163 0 .489-.166.489-.5V19l6.194 21c0 .167.326.5.489.5h6.846c.163 0 .489-.167.489-.5l2.934-9.333 1.467 4.833 1.304 4.5c0 .167.326.5.489.5h6.846c.163 0 .489-.167.489-.5l6.194-21v21c0 .167.163.5.489.5h8.313c.163 0 .489-.167.489-.5V17.833c0-.166-.163-.5-.326-.5Zm10.921-7.5h-8.313c-.163 0-.489.167-.489.5v29.5c0 .167.163.5.489.5h8.313c.163 0 .489-.166.489-.5V10.167c0-.167-.163-.334-.489-.334Zm11.084 0h-8.639c-.163 0-.489.167-.489.5V15.5c0 .167.163.5.489.5h8.639c.163 0 .489-.167.489-.5v-5.333c0-.167-.163-.334-.489-.334Zm-.163 7.5h-8.313c-.163 0-.489.167-.489.5v21.834c0 .166.163.5.489.5h8.313c.163 0 .489-.167.489-.5V17.833c0-.166-.163-.5-.489-.5Zm26.243 11.334c0 6.333-5.216 11.833-12.551 11.833-7.172 0-12.388-5.5-12.388-11.833 0-6.334 5.216-11.834 12.551-11.834 7.172 0 12.388 5.5 12.388 11.834Zm-8.802.166c0-2.333-1.63-4.166-3.586-4-2.119 0-3.586 1.834-3.586 4 0 2.167 1.63 4 3.586 4 2.119 0 3.586-1.833 3.586-4Z" fill="#6A6A6A"/></g><path d="M66.573 85.454v1.332h-3.42V98h-1.638V86.786h-3.438v-1.332h8.496Zm15.156 2.682L78.651 98H76.96l-2.376-7.83L72.207 98h-1.692l-3.096-9.864h1.674l2.268 8.28 2.448-8.28h1.674l2.394 8.298 2.232-8.298h1.62Zm2.472-1.602c-.312 0-.576-.108-.792-.324a1.077 1.077 0 0 1-.324-.792c0-.312.108-.576.324-.792.216-.216.48-.324.792-.324.3 0 .552.108.756.324.216.216.324.48.324.792 0 .312-.108.576-.324.792a.998.998 0 0 1-.756.324Zm.792 1.602V98h-1.638v-9.864h1.638Zm4.43-3.456V98h-1.639V84.68h1.638Zm3.637 1.854c-.312 0-.576-.108-.792-.324a1.077 1.077 0 0 1-.324-.792c0-.312.108-.576.324-.792.216-.216.48-.324.792-.324.3 0 .552.108.756.324.216.216.324.48.324.792 0 .312-.108.576-.324.792a.998.998 0 0 1-.756.324Zm.792 1.602V98h-1.638v-9.864h1.638Zm7.094 10.026c-.924 0-1.764-.21-2.52-.63a4.58 4.58 0 0 1-1.764-1.782c-.42-.78-.63-1.68-.63-2.7 0-1.008.216-1.896.648-2.664a4.51 4.51 0 0 1 1.8-1.782c.756-.42 1.602-.63 2.538-.63.936 0 1.782.21 2.538.63.756.408 1.35.996 1.782 1.764.444.768.666 1.662.666 2.682s-.228 1.92-.684 2.7a4.634 4.634 0 0 1-1.818 1.782c-.768.42-1.62.63-2.556.63Zm0-1.44c.588 0 1.14-.138 1.656-.414.516-.276.93-.69 1.242-1.242.324-.552.486-1.224.486-2.016s-.156-1.464-.468-2.016c-.312-.552-.72-.96-1.224-1.224a3.356 3.356 0 0 0-1.638-.414c-.6 0-1.152.138-1.656.414-.492.264-.888.672-1.188 1.224-.3.552-.45 1.224-.45 2.016 0 .804.144 1.482.432 2.034.3.552.696.966 1.188 1.242a3.372 3.372 0 0 0 1.62.396Z" fill="#A0A0A0"/><defs><clipPath id="a"><path fill="#fff" transform="translate(.465)" d="M0 0h163v50H0z"/></clipPath></defs></svg>
